X: 1
T: Kenny Gillies Of Portnalong
R: jig
S: https://thesession.org/tunes/1875
M: 6/8
L: 1/8
K: A
|: e |\
A2{A}A e2c | efa f2e | f2{a}a A2{A}A| fec c2{B}B |\
A2{A}A e2c | efa f2e | e2{f}f fec | B2{A}A A2 :|
   e |\
a3 A2{A}A| cea f2{e}e| f2{a}a A2{A}A| fec c2{B}B |\
a3 A2{A}A| cea f2e | e2{f}f fec | B2{A}A A2 ||
   e |\
a3 A2{A}A| cea f2{e}e| f2{a}a A2{A}A| fec c2{B}B |\
A2{A}A e2c | efa f2e | e2{f}f fec | B2{A}A A2 |]
|: e |\
A2{A}A cBc | AeA f2{e}e| f2{a}a A2{A}A| fec c2{B}B |\
A2{A}A cBc | AeA f2{e}e| e2{f}f fec | B2{A}A A2 :|
   f |\
c2e aga | Ace f2{e}e| f2{a}a A2{A}A| fec c2{B}B |\
c2e aga | Ace f2{e}e| f2{a}a fec | B2{A}A A2 ||
   f |\
c2e aga | Ace f2{e}e| f2{a}a A2{A}A| fec c2{B}B |\
A2{A}A cBc | AeA f2{e}e| e2{f}f fec | B2{A}A A2 |]
